X:222
T:Reel 222
L:1/8
M: 4/4
K: G Major
ge|dGG(3GGGd2ef|dG(3GGGB2ce|dG(3GGGd2ef|1=fdcA=fdc:|2dc(3ABcde=fa|gf|gfde=f2de|=fgefgfdc|d=fecdcde|=fdcedGGf|gedef2fd|fdefd2ef|(3fgagef2eg|ad'd'c'agg|.abc